X: 3307
T: JENNY JONES
%R: waltz
B: James Kerr "Merry Melodies" v.3 p.33 #307
Z: 2016 John Chambers <jc:trillian.mit.edu>
M: 3/4
L: 1/4
K: G
ud |\
gdB | G>AB | cea | fd(e/f/) |\
gdB | c>de | dgf | g2 ud |\
gdB | G>AB | cea | fd(e/f/) |\
gdB | c>de | dgf | gz |]
ug |\
bgb | afa | gea | fdg |\
bgb | afa | gfe | def |\
gdB | G>AB | cea | fd(e/f/) |\
gdB | c>de | "_D.C. to Allegro."dgf | gz |]

%%sep 1 1 500
%%sep 1 1 500

